public/images/staking.svg

<svg viewBox="0 0 18 15.747" xmlns="http://www.w3.org/2000/svg"><path d="m1.268 278.373h14.078v-.009h.4l2.254-3.364h-3.373v1.664h-3.14a3 3 0 0 0 -4.966 0h-3.139v-1.664h-1.124l-2.258 3.378h1.268z" fill="#8997a5" transform="translate(0 -262.631)"/><path d="m78.344 14.033a3 3 0 0 1 4.966 0h3.139v-14.033h-2.627v.018a3 3 0 0 1 -5.991 0v-.018h-2.631v14.033zm2.478-9.526a3.364 3.364 0 1 1 -3.364 3.364 3.365 3.365 0 0 1 3.364-3.364z" fill="#c4cbd2" transform="translate(-71.818)"/><circle cx="3.364" cy="3.364" fill="#8997a5" r="3.364" transform="matrix(.70710678 -.70710678 .70710678 .70710678 4.249 7.87)"/></svg>

<svg xmlns="http://www.w3.org/2000/svg" viewBox="0 0 18 15.747">
  <defs>
    <style>
      .cls-1 {
        fill: #8997a5;
      }

      .cls-2 {
        fill: #c4cbd2;
      }
    </style>
  </defs>
  <g id="Symbol_34_2" data-name="Symbol 34 – 2" transform="translate(-162 -381)">
    <path id="XMLID_5_" class="cls-1" d="M1.268,278.373H15.346v-.009l.4,0L18,275H14.627v1.664H11.487a3,3,0,0,0-4.966,0H3.382V275H2.258L0,278.378l1.268,0Z" transform="translate(162 118.369)"/>
    <path id="XMLID_2_" class="cls-2" d="M78.344,14.033a3,3,0,0,1,4.966,0h3.139V0H83.822V.018a3,3,0,0,1-5.991,0V0H75.2V14.033Zm2.478-9.526a3.364,3.364,0,1,1-3.364,3.364A3.365,3.365,0,0,1,80.822,4.507Z" transform="translate(90.182 381)"/>
    <circle id="XMLID_1_" class="cls-1" cx="3.364" cy="3.364" r="3.364" transform="translate(166.249 388.87) rotate(-45)"/>
  </g>
</svg>
